img/workshop-coming-soon-top.svg

<svg xmlns="http://www.w3.org/2000/svg" viewBox="43.8 -452 640 325"><path fill="#FFF" d="M43.8-452v325h640v-325h-640zm37.9 101.6c0-3.5 2.8-6.2 6.2-6.2 3.4 0 6.2 2.7 6.2 6.2s-2.8 6.2-6.2 6.2c-3.4.1-6.2-2.7-6.2-6.2zm14.5 203.7c-3.5 0-6.2-2.7-6.2-6.2s2.8-6.2 6.2-6.2c3.4 0 6.2 2.7 6.2 6.2s-2.7 6.2-6.2 6.2zm49.5-115.5l-1.4-.2c.7-3.4.4-6-.9-7.9-1.4-1.9-3.8-3.1-7.1-3.6-3.8-.5-6.5-2-8-4.1-1.5-2.2-1.9-5.2-1.1-9l1.4.2c-.7 3.4-.4 6 .9 7.9 1.4 1.9 3.8 3.1 7.1 3.6 7.5 1.1 10.7 5.6 9.1 13.1zM173.4-419c-3.5 0-6.2-2.7-6.2-6.2s2.7-6.2 6.2-6.2 6.2 2.7 6.2 6.2-2.8 6.2-6.2 6.2zm58.7 218.8c-3.5 0-6.2-2.7-6.2-6.2s2.7-6.2 6.2-6.2 6.2 2.7 6.2 6.2-2.7 6.2-6.2 6.2zm7.2-175.8c-3.1-1.4-5.9-1.5-7.9-.6-2.1.9-3.8 3-4.9 6.2-1.2 3.6-3.1 6-5.6 7.1-2.5 1.1-5.5.9-9-.6l.5-1.2c3.1 1.4 5.9 1.5 7.9.6 2.1-.9 3.8-3 4.9-6.2 2.6-7.2 7.6-9.5 14.8-6.5l-.7 1.2zm41.5 83.4c-3.4.1-6.2-2.7-6.2-6.2s2.8-6.2 6.2-6.2c3.4 0 6.2 2.7 6.2 6.2s-2.8 6.2-6.2 6.2zm56.5 123.3c-2.3-2.6-4.6-3.9-6.9-4-2.3-.1-4.8 1.1-7.1 3.5-5.5 5.4-11 5.2-16-.6l1-.9c2.2 2.6 4.6 3.9 6.9 4 2.2.1 4.8-1.1 7.1-3.5 2.7-2.7 5.5-4 8.1-3.9 2.7.1 5.4 1.6 7.9 4.5l-1 .9zm11.5-238.2l-1.4-.1c.4-3.4-.2-6-1.6-7.7-1.5-1.7-4-2.7-7.4-2.9-3.9-.1-6.6-1.4-8.4-3.4-1.7-2-2.4-5-2-8.9l1.4.1c-.4 3.4.2 6 1.6 7.7 1.5 1.7 4 2.7 7.4 2.9 7.7.4 11.3 4.7 10.4 12.3zm48.6 118l-1-1c2.4-2.5 3.5-4.9 3.4-7.1-.1-2.2-1.5-4.6-4.1-6.7-5.9-5-6.1-10.5-.8-16l1 1c-2.4 2.5-3.5 4.9-3.4 7.1.1 2.2 1.5 4.6 4.1 6.7 2.9 2.5 4.5 5.1 4.6 7.7.1 2.8-1.1 5.6-3.8 8.3zm20.3-113.3c1.6-3.1 5.4-4.2 8.5-2.6 3.1 1.6 4.2 5.4 2.6 8.5-1.6 3-5.4 4.2-8.5 2.6-3.1-1.6-4.2-5.4-2.6-8.5zm17.4 215.5c-1.6 3.1-5.4 4.2-8.5 2.6-3.1-1.6-4.2-5.4-2.6-8.5 1.6-3.1 5.4-4.2 8.5-2.6 3.1 1.6 4.2 5.4 2.6 8.5zm84.6-236l1.3-.6c1.4 3.2 3.4 5.1 5.5 5.8 2.1.8 4.8.2 7.9-1.4 3.4-1.9 6.4-2.3 9-1.6 2.5.9 4.6 3 6.3 6.6l-1.3.6c-1.4-3.2-3.4-5.1-5.5-5.8-2.1-.8-4.8-.2-7.9 1.4-6.7 3.6-12 1.9-15.3-5zm15.6 100c1.6-3 5.5-4.1 8.5-2.5 3 1.7 4.1 5.4 2.5 8.5-1.6 3-5.5 4.1-8.5 2.5-3-1.6-4.1-5.5-2.5-8.5zm27 100c-1-3.3-2.6-5.5-4.7-6.5s-4.7-.9-8 .2c-3.5 1.4-6.6 1.4-9 .2-2.4-1.2-4.2-3.7-5.3-7.3l1.4-.5c1 3.3 2.6 5.5 4.7 6.5s4.7.9 8-.2c7.1-2.6 12.1-.2 14.4 7.1l-1.5.5zm25.3 79.6c-1.6 3-5.5 4.1-8.5 2.5-3-1.6-4.1-5.5-2.5-8.5 1.6-3 5.5-4.1 8.5-2.5 3 1.7 4.1 5.4 2.5 8.5zm60.5-237.7c-3.1-1.6-4.2-5.4-2.6-8.5 1.6-3.1 5.4-4.2 8.5-2.6 3.1 1.6 4.2 5.4 2.6 8.5-1.6 3.1-5.4 4.2-8.5 2.6zm8.6 134.8l-1-1.3c2.6-2.2 4.1-4.4 4.3-6.7s-.9-4.7-3.2-7.3c-2.6-2.7-3.8-5.6-3.6-8.3.2-2.6 1.9-5.3 4.8-7.6l1 1.1c-2.6 2.2-4.1 4.4-4.3 6.7-.2 2.3.9 4.7 3.2 7.3 5 5.8 4.6 11.3-1.2 16.1z"/></svg>

<?xml version="1.0" encoding="utf-8"?>
<!-- Generator: Adobe Illustrator 18.1.1, SVG Export Plug-In . SVG Version: 6.00 Build 0)  -->
<svg version="1.1" id="Layer_1" xmlns="http://www.w3.org/2000/svg" xmlns:xlink="http://www.w3.org/1999/xlink" x="0px" y="0px"
	 viewBox="43.8 -452 640 325" enable-background="new 43.8 -452 640 325" xml:space="preserve">
<path fill="#FFFFFF" d="M43.8-452v325h640v-325H43.8z M81.7-350.4c0-3.5,2.8-6.2,6.2-6.2c3.4,0,6.2,2.7,6.2,6.2s-2.8,6.2-6.2,6.2
	C84.5-344.1,81.7-346.9,81.7-350.4z M96.2-146.7c-3.5,0-6.2-2.7-6.2-6.2s2.8-6.2,6.2-6.2c3.4,0,6.2,2.7,6.2,6.2
	C102.4-149.4,99.7-146.7,96.2-146.7z M145.7-262.2l-1.4-0.2c0.7-3.4,0.4-6-0.9-7.9c-1.4-1.9-3.8-3.1-7.1-3.6c-3.8-0.5-6.5-2-8-4.1
	c-1.5-2.2-1.9-5.2-1.1-9l1.4,0.2c-0.7,3.4-0.4,6,0.9,7.9c1.4,1.9,3.8,3.1,7.1,3.6C144.1-274.2,147.3-269.7,145.7-262.2z M173.4-419
	c-3.5,0-6.2-2.7-6.2-6.2s2.7-6.2,6.2-6.2s6.2,2.7,6.2,6.2S176.8-419,173.4-419z M232.1-200.2c-3.5,0-6.2-2.7-6.2-6.2
	s2.7-6.2,6.2-6.2s6.2,2.7,6.2,6.2C238.3-202.9,235.6-200.2,232.1-200.2z M239.3-376c-3.1-1.4-5.9-1.5-7.9-0.6
	c-2.1,0.9-3.8,3-4.9,6.2c-1.2,3.6-3.1,6-5.6,7.1c-2.5,1.1-5.5,0.9-9-0.6l0.5-1.2c3.1,1.4,5.9,1.5,7.9,0.6c2.1-0.9,3.8-3,4.9-6.2
	c2.6-7.2,7.6-9.5,14.8-6.5L239.3-376z M280.8-292.6c-3.4,0.1-6.2-2.7-6.2-6.2s2.8-6.2,6.2-6.2c3.4,0,6.2,2.7,6.2,6.2
	S284.2-292.6,280.8-292.6z M337.3-169.3c-2.3-2.6-4.6-3.9-6.9-4c-2.3-0.1-4.8,1.1-7.1,3.5c-5.5,5.4-11,5.2-16-0.6l1-0.9
	c2.2,2.6,4.6,3.9,6.9,4c2.2,0.1,4.8-1.1,7.1-3.5c2.7-2.7,5.5-4,8.1-3.9c2.7,0.1,5.4,1.6,7.9,4.5L337.3-169.3z M348.8-407.5l-1.4-0.1
	c0.4-3.4-0.2-6-1.6-7.7c-1.5-1.7-4-2.7-7.4-2.9c-3.9-0.1-6.6-1.4-8.4-3.4c-1.7-2-2.4-5-2-8.9l1.4,0.1c-0.4,3.4,0.2,6,1.6,7.7
	c1.5,1.7,4,2.7,7.4,2.9C346.1-419.4,349.7-415.1,348.8-407.5z M397.4-289.5l-1-1c2.4-2.5,3.5-4.9,3.4-7.1c-0.1-2.2-1.5-4.6-4.1-6.7
	c-5.9-5-6.1-10.5-0.8-16l1,1c-2.4,2.5-3.5,4.9-3.4,7.1c0.1,2.2,1.5,4.6,4.1,6.7c2.9,2.5,4.5,5.1,4.6,7.7
	C401.3-295,400.1-292.2,397.4-289.5z M417.7-402.8c1.6-3.1,5.4-4.2,8.5-2.6c3.1,1.6,4.2,5.4,2.6,8.5c-1.6,3-5.4,4.2-8.5,2.6
	C417.2-395.9,416.1-399.7,417.7-402.8z M435.1-187.3c-1.6,3.1-5.4,4.2-8.5,2.6c-3.1-1.6-4.2-5.4-2.6-8.5c1.6-3.1,5.4-4.2,8.5-2.6
	C435.6-194.2,436.7-190.4,435.1-187.3z M519.7-423.3l1.3-0.6c1.4,3.2,3.4,5.1,5.5,5.8c2.1,0.8,4.8,0.2,7.9-1.4
	c3.4-1.9,6.4-2.3,9-1.6c2.5,0.9,4.6,3,6.3,6.6l-1.3,0.6c-1.4-3.2-3.4-5.1-5.5-5.8c-2.1-0.8-4.8-0.2-7.9,1.4
	C528.3-414.7,523-416.4,519.7-423.3z M535.3-323.3c1.6-3,5.5-4.1,8.5-2.5c3,1.7,4.1,5.4,2.5,8.5c-1.6,3-5.5,4.1-8.5,2.5
	C534.8-316.4,533.7-320.3,535.3-323.3z M562.3-223.3c-1-3.3-2.6-5.5-4.7-6.5c-2.1-1-4.7-0.9-8,0.2c-3.5,1.4-6.6,1.4-9,0.2
	c-2.4-1.2-4.2-3.7-5.3-7.3l1.4-0.5c1,3.3,2.6,5.5,4.7,6.5c2.1,1,4.7,0.9,8-0.2c7.1-2.6,12.1-0.2,14.4,7.1L562.3-223.3z M587.6-143.7
	c-1.6,3-5.5,4.1-8.5,2.5c-3-1.6-4.1-5.5-2.5-8.5c1.6-3,5.5-4.1,8.5-2.5C588.1-150.5,589.2-146.8,587.6-143.7z M648.1-381.4
	c-3.1-1.6-4.2-5.4-2.6-8.5c1.6-3.1,5.4-4.2,8.5-2.6c3.1,1.6,4.2,5.4,2.6,8.5C655-380.9,651.2-379.8,648.1-381.4z M656.7-246.6
	l-1-1.3c2.6-2.2,4.1-4.4,4.3-6.7s-0.9-4.7-3.2-7.3c-2.6-2.7-3.8-5.6-3.6-8.3c0.2-2.6,1.9-5.3,4.8-7.6l1,1.1
	c-2.6,2.2-4.1,4.4-4.3,6.7c-0.2,2.3,0.9,4.7,3.2,7.3C662.9-256.9,662.5-251.4,656.7-246.6z"/>
</svg>
